X: 3479
T: Beyond Words
R: jig
M: 6/8
K: Cmajor
|:EzB ^GAB|cBA B^GA|Bcd cBA|B^GA F2D|
EzB ^GAB|cBA Bf/f/f|fde cdB|cAB ^G2[Ff]:|
e2d ef^g|a^gf ezb|^gaf eb^g|af^g ez f|
e2d ef^g|a^gf ezd'|c'd'b c'ab|^gaf ez f|
e2d ef^g|a^gf ezb|^gaf eb^g|af^g ez f|
e2d ef^g|a^gf ezd'|c'd'b ^gef|dec B^GF|

